svg/emoji_u1f95c.svg

<svg xmlns="http://www.w3.org/2000/svg" xmlns:xlink="http://www.w3.org/1999/xlink" viewBox="0 0 128 128" width="512px" height="512px"><defs><path id="a" d="M113.48 5.84c-5.75-4.2-4.85 3.2-8.58 4.08-3.96.93-18.66.02-35.05 13.08-12.04 9.6-12.25 17.16-21.7 27.31-9.45 10.15-19.78 7.18-31.86 19.95-12.08 12.78-18.2 34.66-7.35 44.81 10.55 9.87 39.37 15.36 63.5-9.07 12.54-12.7 4.48-22.36 15.79-32.76 8.75-8.05 18.38-6.48 29.58-20.48 15.63-19.53.42-43.45-4.33-46.92z"/></defs><use xlink:href="#a" overflow="visible" fill="#cb9265"/><clipPath id="b"><use xlink:href="#a" overflow="visible"/></clipPath><path d="M109.11 4.3c2.98 6.09-7.45 11.5-10.45 12.53-4.65 1.61-14.36 2.98-16.95 5.76-3.73 4.01-11.8 6.33-15.98 15.75-.93 2.09-2.53 8.95-8.8 16.22C53.7 58.31 39.45 60.6 35.71 64c-5.11 4.64-5.79 8.28-11.21 10-4.46 1.42-4.75 4.16-7.62 6.5-7.09 5.79-14.47 18.23-12.55 32.67" clip-path="url(#b)" fill="none" stroke="#e5b076" stroke-width="3.5" stroke-miterlimit="10"/><path d="M112.43 2.95c-.35 4.61-.68 12.25-4.25 15.19-5.18 4.28-8.81 6.79-12.19 10.36-2.12 2.25-5.43 2.11-8.83 4.33C83.08 35.5 74.5 43.88 72.5 49c-2.77 7.1-6.25 13.99-13.49 16.35-3.13 1.02-15.61 11.62-17.53 14.46-5.68 8.42-10.89 9.68-20.15 13.85C12.55 97.62 6.1 106.75.85 114.82" clip-path="url(#b)" fill="none" stroke="#e5b076" stroke-width="3.5" stroke-miterlimit="10"/><path d="M117 1.33c-1.6 5.54-3.63 11.52-3.57 17.52.07 5.81-2.67 10.8-5.68 15.27-.66.98-5.49 3.15-6.75 4.62-3.78 4.42-6.97 9.73-10.5 11.92-2.48 1.54-5.44 5.56-9.86 7.54-4.27 1.91-8.86 8.1-10.92 10.99-2.29 3.21-5.73 6.92-6.4 10.67-1.3 7.25-9.32 13.41-17.42 17.71-5.57 2.96-18.02 5.33-20.51 7.13-9 6.5-18.59 8.79-27.88 7.54" clip-path="url(#b)" fill="none" stroke="#e5b076" stroke-width="3.5" stroke-miterlimit="10"/><path d="M114.12 1.06c1.48 10.24 6.38 19.25 5.53 29.55-.12 1.46-1.77 5.38-3.27 7.01-3.89 4.22-4.16 12.97-7.27 15.27-4.4 3.26-11.27 4.27-15.01 7.8-6.03 5.68-14.17 7.87-15.6 15.31-1.25 6.53-2.63 10.95-5.67 15.5-2.22 3.33-7.36 7.79-8.06 11.05-.81 3.77-8.49 6.44-11.77 8.45-6 3.68-15.59 4.67-19.83 6.49-7.7 3.31-22.36-.07-34.02-5.07" clip-path="url(#b)" fill="none" stroke="#e5b076" stroke-width="3.5" stroke-miterlimit="10"/><path d="M94.28 9.89c-1.48 2.17-.35 6.2 1.81 7.7m-31.11 2.92c.6 1.73 1.21 3.48 2.24 4.99s2.54 2.78 4.33 3.12M52.99 40.18c2.28-.36 4.6-.52 6.91-.46.45.01.93.04 1.28.32.54.43 2.15 2.28 2.81 2.5m-19.46 8.55c.34 1.19.09 2.45.05 3.68s.53 4.09 1.57 4.75m-11.3-2.88c.25.94 1.19 1.49 1.98 2.05.8.56 1.93 3.11 1.68 4.06m-22.92 2.9c.94 3.1 2.2 6.1 3.76 8.93.25.46.7.99 1.19.8M6.38 80.07c1.14.46 2.42.15 3.65.14s3.24 1.55 3.5 2.75M8.15 93.31c.93 2.09 3 4.53 5.26 4.88m4.17-17.51c3.39 1.58 5.64 7.44 5.82 11.18m5.76-20.62c-.18 2.25.85 4.87 2.13 6.72 1.81 2.63 4.38 3 7.55 3.34M36.41 64c4.87-.66 10.84 2.32 13.28 6.59m2.65-11.19c1.64 2.12 3.46 4.1 5.43 5.92m.93-11.17c1.19 2.23 3.08 4.08 5.33 5.22m-1.52-12.49c1.78.64 3.47-.01 5.34.31 1.56.26 2.74.75 3.52 2.12m-1.78-15.6c.92 1.56 1.12 1.91 2.43 3.15s5.36 2.6 7.16 2.44m.7-14.57c1.65-.05 3.29-.08 4.94-.09.42 0 .85 0 1.22.2.25.14.44.36.62.58 1.19 1.43 2.24 2.98 3.11 4.62m.88-11.09c2.45.16 5.22 4.05 6.09 6.35m7.2-11.19c-.42 1.51.16 4.88 1.6 5.49m-5.06 6.25c1.65 0 2.95.54 4.6.53.28 0 .58 0 .81.17.21.15.31.4.4.64.49 1.28 3.14 2.2 3.63 3.48m-18.83 1.41c-.33 3.81 1.97 7.7 5.47 9.25m-13.28-4.96c2.18.56 3.74 2.48 4.79 4.46 1.05 1.99 1.76 4.17 3.07 5.99m-13.43-3.83c.26 4.09 1.74 8.1 4.22 11.36m-11.36.84a9.104 9.104 0 0 0 5.1 5.24M62.85 64c2.3 1.16 3.74 2.66 4.83 4.99m-15.03 1.52c1.42 4.27 5.58 7.48 10.07 7.76m-18.17-.61c3.63 2.6 7.67 5.36 8.89 9.66.42 1.48.51 3.15 1.55 4.29m-16.44-7.35c.92 1.79 1.83 3.58 2.75 5.37.7 1.37 1.19 2.84 1.36 4.37.2 1.76.53 5.66.41 4.29m-14.59-6.88c-.3 3.86-.47 6.78 1.3 10.22M18.2 96.45c-.39.58-.16 1.37.1 2.02a49.05 49.05 0 0 0 3.34 6.88m-11.78-1.17c1.44 1.74 2.5 3.79 3.06 5.98m70.04-97.73c-.62 2.33.1 4.96 1.82 6.65m29.14 6.3c1.43-.32 2.81-.83 4.12-1.49m-9.75 10.15c.84 1.72 1.73 3.42 2.67 5.08.38.68 2.15 1.31 2.89 1.07m-15.45 1.8c1.83-.83 5.32-.65 7.05.36 1.73 1.01 4.31 3.67 6.18 4.39m-22.47 5.74c-.33 2.86.5 5.84 2.26 8.13m-12.22-.37c2.17.44 4.68 3.98 4.99 6.17m-17.44 8.15c1.97 4.09 5.28 7.52 9.31 9.62m-15.21 2.23c1.84-.17 3.66-.24 4.91 1.13 1.25 1.37 2.96 5.15 3.64 6.87m-19.01 1.38c-.4 2.4-.56 4.87-.12 7.27.43 2.4 1.49 4.73 3.25 6.41m-16.76-8.3c1.52 1.44 3.07 2.9 4.07 4.74 1.54 2.81 1.61 5.31 1.67 8.51m-15.63-10.2c.71 1.13 1.38 2.31 1.74 3.59.25.91.34 1.85.62 2.75.66 2.19 2.31 3.92 3.9 5.56m-12.01-7.34c-.16 1.08-.54 2.14-.53 3.24.01 2.04 1.52 5.64 3.49 6.18m96.08-87.43c1.3.23 4.81.22 6.13.09m-9.91 6.76c2.32-.72 8.72 2.34 9.36 4.68m-12.58 4.64c.75 2.68 2.34 5.13 4.48 6.91m-9.99.97c1.56 2.28 1.79 4.41 2.64 7.04m-10.81-3.51c2.71 2.72 3.61 5.82 3.59 9.65m-15.51-2.43c1.92 1.81 2.64 4.91 5.06 5.96m-13.29 3.61l3.51 1.11c1.83.58 3.88 1.35 4.62 3.12M74.4 90.28c.76 2.48 2.94 4.46 5.48 4.98m-12.49 4.88c3.38 1.64 6.07 4.65 7.32 8.19M64 105.41c.27 1.75 1.62 3.34 2.47 4.9.53.96 1.45 1.99 2.51 1.72m-14.63-.22a14.3 14.3 0 0 1 2.07 7.62m-8.98-5.42c1.11 2.87.74 5.36-.53 8.17m-12.43-3.92c.08.63-.4 1.16-.75 1.68-1.37 2.02-1.02 4.7-.62 7.11" clip-path="url(#b)" fill="none" stroke="#e5b076" stroke-width="3.5" stroke-linecap="round" stroke-linejoin="round" stroke-miterlimit="10"/><path d="M119.16 13.27c1.88 7 1.88 16.81-2.66 21.23-6.67 6.5-5.12 12.34-10 15.67-3.66 2.49-3.98 2.74-8 3.83-2.71.74-5.98 3.84-8.5 4.83-3.19 1.25-8.8 3.39-11.17 6.33-1.44 1.79-3.02 4.84-4 7.17-1.35 3.22-1.45 5.83-2.5 8.83C70.94 85.12 66.45 89 64 92c-4.14 5.08-7.91 5.42-13.35 9.94C43.4 107.95 37 112 28.25 112.75c-6.35.54-11.51-2.2-14-2.5-6.23-.75-9.55-5.64-10.96-14.04-1.25 5.75-2.34 15.42 1.6 21.57 4.87 7.6 14.64 10.25 23.59 11.42 6.04.79 12.12 1.2 18.21 1.21 3.26.01 6.55-.1 9.71-.93 3.47-.91 6.66-2.65 9.72-4.52 7.7-4.71 15.13-10.7 18.71-18.98 2.92-6.75 3.13-14.64 7.19-20.77 3.79-5.71 10.25-8.91 16.26-12.19 9.44-5.16 19.11-11.95 22.21-22.25 1.27-4.23 1.32-8.72 1.12-13.13-.33-7.15-.98-15.78-7.23-19.27l-5.22-5.1z" clip-path="url(#b)" fill="#cb9265"/></svg>

<svg xmlns="http://www.w3.org/2000/svg" xmlns:xlink="http://www.w3.org/1999/xlink" viewBox="0 0 128 128"><defs><path id="a" d="M113.48 5.84c-5.75-4.2-4.85 3.2-8.58 4.08-3.96.93-18.66.02-35.05 13.08-12.04 9.6-12.25 17.16-21.7 27.31-9.45 10.15-19.78 7.18-31.86 19.95-12.08 12.78-18.2 34.66-7.35 44.81 10.55 9.87 39.37 15.36 63.5-9.07 12.54-12.7 4.48-22.36 15.79-32.76 8.75-8.05 18.38-6.48 29.58-20.48 15.63-19.53.42-43.45-4.33-46.92z"/></defs><use xlink:href="#a" overflow="visible" fill="#cb9265"/><clipPath id="b"><use xlink:href="#a" overflow="visible"/></clipPath><path d="M109.11 4.3c2.98 6.09-7.45 11.5-10.45 12.53-4.65 1.61-14.36 2.98-16.95 5.76-3.73 4.01-11.8 6.33-15.98 15.75-.93 2.09-2.53 8.95-8.8 16.22C53.7 58.31 39.45 60.6 35.71 64c-5.11 4.64-5.79 8.28-11.21 10-4.46 1.42-4.75 4.16-7.62 6.5-7.09 5.79-14.47 18.23-12.55 32.67" clip-path="url(#b)" fill="none" stroke="#e5b076" stroke-width="3.5" stroke-miterlimit="10"/><path d="M112.43 2.95c-.35 4.61-.68 12.25-4.25 15.19-5.18 4.28-8.81 6.79-12.19 10.36-2.12 2.25-5.43 2.11-8.83 4.33C83.08 35.5 74.5 43.88 72.5 49c-2.77 7.1-6.25 13.99-13.49 16.35-3.13 1.02-15.61 11.62-17.53 14.46-5.68 8.42-10.89 9.68-20.15 13.85C12.55 97.62 6.1 106.75.85 114.82" clip-path="url(#b)" fill="none" stroke="#e5b076" stroke-width="3.5" stroke-miterlimit="10"/><path d="M117 1.33c-1.6 5.54-3.63 11.52-3.57 17.52.07 5.81-2.67 10.8-5.68 15.27-.66.98-5.49 3.15-6.75 4.62-3.78 4.42-6.97 9.73-10.5 11.92-2.48 1.54-5.44 5.56-9.86 7.54-4.27 1.91-8.86 8.1-10.92 10.99-2.29 3.21-5.73 6.92-6.4 10.67-1.3 7.25-9.32 13.41-17.42 17.71-5.57 2.96-18.02 5.33-20.51 7.13-9 6.5-18.59 8.79-27.88 7.54" clip-path="url(#b)" fill="none" stroke="#e5b076" stroke-width="3.5" stroke-miterlimit="10"/><path d="M114.12 1.06c1.48 10.24 6.38 19.25 5.53 29.55-.12 1.46-1.77 5.38-3.27 7.01-3.89 4.22-4.16 12.97-7.27 15.27-4.4 3.26-11.27 4.27-15.01 7.8-6.03 5.68-14.17 7.87-15.6 15.31-1.25 6.53-2.63 10.95-5.67 15.5-2.22 3.33-7.36 7.79-8.06 11.05-.81 3.77-8.49 6.44-11.77 8.45-6 3.68-15.59 4.67-19.83 6.49-7.7 3.31-22.36-.07-34.02-5.07" clip-path="url(#b)" fill="none" stroke="#e5b076" stroke-width="3.5" stroke-miterlimit="10"/><path d="M94.28 9.89c-1.48 2.17-.35 6.2 1.81 7.7M64.98 20.51c.6 1.73 1.21 3.48 2.24 4.99s2.54 2.78 4.33 3.12M52.99 40.18c2.28-.36 4.6-.52 6.91-.46.45.01.93.04 1.28.32.54.43 2.15 2.28 2.81 2.5M44.53 51.09c.34 1.19.09 2.45.05 3.68s.53 4.09 1.57 4.75M34.85 56.64c.25.94 1.19 1.49 1.98 2.05.8.56 1.93 3.11 1.68 4.06M15.59 65.65c.94 3.1 2.2 6.1 3.76 8.93.25.46.7.99 1.19.8M6.38 80.07c1.14.46 2.42.15 3.65.14s3.24 1.55 3.5 2.75M8.15 93.31c.93 2.09 3 4.53 5.26 4.88M17.58 80.68c3.39 1.58 5.64 7.44 5.82 11.18M29.16 71.24c-.18 2.25.85 4.87 2.13 6.72 1.81 2.63 4.38 3 7.55 3.34M36.41 64c4.87-.66 10.84 2.32 13.28 6.59M52.34 59.4c1.64 2.12 3.46 4.1 5.43 5.92M58.7 54.15c1.19 2.23 3.08 4.08 5.33 5.22M62.51 46.88c1.78.64 3.47-.01 5.34.31 1.56.26 2.74.75 3.52 2.12M69.59 33.71c.92 1.56 1.12 1.91 2.43 3.15s5.36 2.6 7.16 2.44M79.88 24.73c1.65-.05 3.29-.08 4.94-.09.42 0 .85 0 1.22.2.25.14.44.36.62.58 1.19 1.43 2.24 2.98 3.11 4.62M90.65 18.95c2.45.16 5.22 4.05 6.09 6.35M103.94 14.11c-.42 1.51.16 4.88 1.6 5.49M100.48 25.85c1.65 0 2.95.54 4.6.53.28 0 .58 0 .81.17.21.15.31.4.4.64.49 1.28 3.14 2.2 3.63 3.48M91.09 32.08c-.33 3.81 1.97 7.7 5.47 9.25M83.28 36.37c2.18.56 3.74 2.48 4.79 4.46 1.05 1.99 1.76 4.17 3.07 5.99M77.71 42.99c.26 4.09 1.74 8.1 4.22 11.36M70.57 55.19a9.104 9.104 0 0 0 5.1 5.24M62.85 64c2.3 1.16 3.74 2.66 4.83 4.99M52.65 70.51c1.42 4.27 5.58 7.48 10.07 7.76M44.55 77.66c3.63 2.6 7.67 5.36 8.89 9.66.42 1.48.51 3.15 1.55 4.29M38.55 84.26c.92 1.79 1.83 3.58 2.75 5.37.7 1.37 1.19 2.84 1.36 4.37.2 1.76.53 5.66.41 4.29M28.48 91.41c-.3 3.86-.47 6.78 1.3 10.22M18.2 96.45c-.39.58-.16 1.37.1 2.02a49.05 49.05 0 0 0 3.34 6.88M9.86 104.18c1.44 1.74 2.5 3.79 3.06 5.98M82.96 12.43c-.62 2.33.1 4.96 1.82 6.65M113.92 25.38c1.43-.32 2.81-.83 4.12-1.49M108.29 34.04c.84 1.72 1.73 3.42 2.67 5.08.38.68 2.15 1.31 2.89 1.07M98.4 41.99c1.83-.83 5.32-.65 7.05.36 1.73 1.01 4.31 3.67 6.18 4.39M89.16 52.48c-.33 2.86.5 5.84 2.26 8.13M79.2 60.24c2.17.44 4.68 3.98 4.99 6.17M66.75 74.56c1.97 4.09 5.28 7.52 9.31 9.62M60.85 86.41c1.84-.17 3.66-.24 4.91 1.13 1.25 1.37 2.96 5.15 3.64 6.87M50.39 95.79c-.4 2.4-.56 4.87-.12 7.27.43 2.4 1.49 4.73 3.25 6.41M36.76 101.17c1.52 1.44 3.07 2.9 4.07 4.74 1.54 2.81 1.61 5.31 1.67 8.51M26.87 104.22c.71 1.13 1.38 2.31 1.74 3.59.25.91.34 1.85.62 2.75.66 2.19 2.31 3.92 3.9 5.56M21.12 108.78c-.16 1.08-.54 2.14-.53 3.24.01 2.04 1.52 5.64 3.49 6.18M120.16 30.77c1.3.23 4.81.22 6.13.09M116.38 37.62c2.32-.72 8.72 2.34 9.36 4.68M113.16 46.94c.75 2.68 2.34 5.13 4.48 6.91M107.65 54.82c1.56 2.28 1.79 4.41 2.64 7.04M99.48 58.35c2.71 2.72 3.61 5.82 3.59 9.65M87.56 65.57c1.92 1.81 2.64 4.91 5.06 5.96M79.33 75.14l3.51 1.11c1.83.58 3.88 1.35 4.62 3.12M74.4 90.28c.76 2.48 2.94 4.46 5.48 4.98M67.39 100.14c3.38 1.64 6.07 4.65 7.32 8.19M64 105.41c.27 1.75 1.62 3.34 2.47 4.9.53.96 1.45 1.99 2.51 1.72M54.35 111.81a14.3 14.3 0 0 1 2.07 7.62M47.44 114.01c1.11 2.87.74 5.36-.53 8.17M34.48 118.26c.08.63-.4 1.16-.75 1.68-1.37 2.02-1.02 4.7-.62 7.11" clip-path="url(#b)" fill="none" stroke="#e5b076" stroke-width="3.5" stroke-linecap="round" stroke-linejoin="round" stroke-miterlimit="10"/><path d="M119.16 13.27c1.88 7 1.88 16.81-2.66 21.23-6.67 6.5-5.12 12.34-10 15.67-3.66 2.49-3.98 2.74-8 3.83-2.71.74-5.98 3.84-8.5 4.83-3.19 1.25-8.8 3.39-11.17 6.33-1.44 1.79-3.02 4.84-4 7.17-1.35 3.22-1.45 5.83-2.5 8.83C70.94 85.12 66.45 89 64 92c-4.14 5.08-7.91 5.42-13.35 9.94C43.4 107.95 37 112 28.25 112.75c-6.35.54-11.51-2.2-14-2.5-6.23-.75-9.55-5.64-10.96-14.04-1.25 5.75-2.34 15.42 1.6 21.57 4.87 7.6 14.64 10.25 23.59 11.42 6.04.79 12.12 1.2 18.21 1.21 3.26.01 6.55-.1 9.71-.93 3.47-.91 6.66-2.65 9.72-4.52 7.7-4.71 15.13-10.7 18.71-18.98 2.92-6.75 3.13-14.64 7.19-20.77 3.79-5.71 10.25-8.91 16.26-12.19 9.44-5.16 19.11-11.95 22.21-22.25 1.27-4.23 1.32-8.72 1.12-13.13-.33-7.15-.98-15.78-7.23-19.27l-5.22-5.1z" clip-path="url(#b)" fill="#cb9265"/></svg>
